svgs/sharp-solid/calendar-circle-user.svg

<svg xmlns="http://www.w3.org/2000/svg" viewBox="0 0 576 512"><!--! Font Awesome Pro 6.6.0 by @fontawesome - https://fontawesome.com License - https://fontawesome.com/license (Commercial License) Copyright 2024 Fonticons, Inc. --><path d="M160 0L96 0l0 64L0 64l0 96 448 0 0-96-96 0 0-64L288 0l0 64L160 64l0-64zm96 368c0-91.8 70.3-167.2 160-175.3l0-.7L0 192 0 512l330.8 0C285.6 480.1 256 427.5 256 368zm320 0a144 144 0 1 0 -288 0 144 144 0 1 0 288 0zm-63.3 77.7c-20.4 21.2-49 34.3-80.7 34.3s-60.3-13.2-80.7-34.3L376 416l112 0 24.7 29.7zM384 336a48 48 0 1 1 96 0 48 48 0 1 1 -96 0z"/></svg>

<svg xmlns="http://www.w3.org/2000/svg" viewBox="0 0 576 512"><!--! Font Awesome Pro 6.4.0 by @fontawesome - https://fontawesome.com License - https://fontawesome.com/license (Commercial License) Copyright 2023 Fonticons, Inc. --><path d="M160 0H96V64H0v96H448V64H352V0H288V64H160V0zm96 368c0-91.8 70.3-167.2 160-175.3V192H0V512H330.8C285.6 480.1 256 427.5 256 368zm320 0a144 144 0 1 0 -288 0 144 144 0 1 0 288 0zm-63.3 77.7c-20.4 21.2-49 34.3-80.7 34.3s-60.3-13.2-80.7-34.3L376 416H488l24.7 29.7zM384 336a48 48 0 1 1 96 0 48 48 0 1 1 -96 0z"/></svg>
